X:1
T:Coming Home (Dimmitt)
T:Coming Home (Dimmitt)
T:William James Kirkpatrick
T:J. P. Dimmitt, 1887
T:Public Domain Courtesy of the Cyber Hymnal™
T:Public Domain Courtesy of the Cyber Hymnal™
C:William James Kirkpatrick
Z:Public Domain
Z:Courtesy of the Cyber Hymnal™
%%score ( 1 2 ) ( 3 4 )
L:1/8
Q:1/4=95
M:4/4
K:C
V:1 treble 
V:2 treble 
V:3 bass 
V:4 bass 
V:1
 [CE][DF] | [EG][EG][EG][EG] [Ec]2 [GB][FA] | [EG]2 [EG]2 [CE]2 [EG]>[FA] | %3
w: 1.~We have|wan- dered far a- way from our|Fa- ther’s home, In the|
w: 2.~We are|com- ing now by faith, by the|Spir- it led, We are|
w: 3.~We have|kin- dred gone be- fore, to the|heaven- ly home, And they|
 [EG][DF][DF][^CE] [DF]2 [B,G]2 | [CE]6 [CE][DF] | [EG][EG][EG][EG] [Ec]2 [GB][FA] | %6
w: dark and drea- ry paths of|sin; But we|hear our Sav- ior’s voice call- ing|
w: com- ing with our hearts to|Thee; We are|trust- ing in the blood that for|
w: draw us by the chords of|love; They are|call- ing us to- day, call- ing|
 [EG]2 [EG]2 [CE]2 [EG][EG] | [FA][FA][FA][Fc] [Ec]2 [DB]2 | [Ec]6 ||"^Refrain" [Gc][GB] | %10
w: us to come, And at|once a bet- ter life be-|gin.||
w: us was shed, And the|Ho- ly Spir- it sets us|free.|We are|
w: us to come, To the|hap- py, hap- py home a-|bove.||
 [FA] A3 [Ac]2 [GB][FA] | [EG] G3 [CE]4 | [EG] c3 [FB]2 [Ec]2 | [Fd]6 [CE][DF] | %14
w: ||||
w: com- ing home, We are|com- ing home,|Com- ing home to-|day; We have|
w: ||||
 [EG][EG][EG][EG] [Ec]2 [EG][EG] | [FA][FA][FA][FA] !fermata![Ac]2 [GB][FA] | %16
w: ||
w: heard Thy lov- ing voice, Bless- èd|Sav- ior, and re- joice; We are|
w: ||
 [EG] [Ec]3 [Ec]2 [DB]2 | [Ec]6 |] %18
w: ||
w: com- ing home to-|day.|
w: ||
V:2
 x2 | x8 | x8 | x8 | x8 | x8 | x8 | x8 | x6 || x2 | x (FFF) x4 | x (EEE) x4 | x (EGG) x4 | x8 | %14
 x8 | x8 | x8 | x6 |] %18
V:3
 [C,G,][C,G,] | [C,C][C,C][C,C][C,C] [C,G,]2 [C,G,][C,C] | [C,C]2 [C,C]2 [C,G,]2 [C,G,]>[C,G,] | %3
w: ~ ~|~ ~ ~ ~ ~ ~ ~|~ ~ ~ ~ ~|
 [G,,G,][G,,G,][G,,G,][G,,G,] [G,,G,]2 [G,,G,]2 | [C,G,]6 [C,G,][C,G,] | %5
w: ~ ~ ~ ~ ~ ~|~ ~ ~|
 [C,C][C,C][C,C][C,C] [C,G,]2 [C,G,][C,C] | [C,C]2 [C,C]2 [C,G,]2 [C,C][C,C] | %7
w: ~ ~ ~ ~ ~ ~ ~|~ ~ ~ ~ ~|
 [F,C][F,C][F,C][F,A,] G,2 G,2 | [C,G,]6 || [E,C][E,C] | [F,C][F,C][F,C][F,C] [F,C]2 [F,C][F,C] | %11
w: ~ ~ ~ ~ ~ ~|~|~ ~|~ ~ com- ing, ~ ~ ~|
 [C,C][C,C][C,C][C,C] [C,G,]4 | [C,G,][C,G,][E,G,][E,G,] [E,G,]2 [C,C]2 | %13
w: ~ ~ com- ing, ~|~ ~ com- ing, ~ ~|
 [G,B,]2 [G,B,]2 B,2 [E,G,][D,G,] | [C,C][C,C][C,C][C,C] [C,G,]2 [C,C][C,C] | %15
w: ~ to- day, * *||
 [F,C][F,C][F,C][F,C] !fermata![F,C]2 [F,C][F,C] | [G,C] [G,C]3 [G,,G,]2 [G,,G,]2 | [C,G,]6 |] %18
w: |||
V:4
 x2 | x8 | x8 | x8 | x8 | x8 | x8 | x4 G,2 G,2 | x6 || x2 | x8 | x8 | x8 | x4 (G,F,) x2 | x8 | x8 | %16
 x8 | x6 |] %18

